icons/numix/32x32/mimetypes/application-x-blender.svg

<?xml version="1.0" encoding="UTF-8" standalone="no"?>
<svg
   xmlns:dc="http://purl.org/dc/elements/1.1/"
   xmlns:cc="http://creativecommons.org/ns#"
   xmlns:rdf="http://www.w3.org/1999/02/22-rdf-syntax-ns#"
   xmlns:svg="http://www.w3.org/2000/svg"
   xmlns="http://www.w3.org/2000/svg"
   xmlns:sodipodi="http://sodipodi.sourceforge.net/DTD/sodipodi-0.dtd"
   xmlns:inkscape="http://www.inkscape.org/namespaces/inkscape"
   width="32"
   height="32"
   viewBox="0 0 32 32"
   id="svg2"
   version="1.1"
   inkscape:version="0.48.5 r10040"
   sodipodi:docname="application-x-blender.svg">
  <metadata
     id="metadata20">
    <rdf:RDF>
      <cc:Work
         rdf:about="">
        <dc:format>image/svg+xml</dc:format>
        <dc:type
           rdf:resource="http://purl.org/dc/dcmitype/StillImage" />
      </cc:Work>
    </rdf:RDF>
  </metadata>
  <defs
     id="defs18" />
  <sodipodi:namedview
     pagecolor="#ffffff"
     bordercolor="#666666"
     borderopacity="1"
     objecttolerance="10"
     gridtolerance="10"
     guidetolerance="10"
     inkscape:pageopacity="0"
     inkscape:pageshadow="2"
     inkscape:window-width="1280"
     inkscape:window-height="970"
     id="namedview16"
     showgrid="true"
     inkscape:zoom="10.429825"
     inkscape:cx="1.3309417"
     inkscape:cy="25.734522"
     inkscape:window-x="0"
     inkscape:window-y="0"
     inkscape:window-maximized="1"
     inkscape:current-layer="svg2">
    <inkscape:grid
       type="xygrid"
       id="grid3008" />
  </sodipodi:namedview>
  <path
     style="fill:#ce5b00;fill-opacity:1"
     d="M 5.335888,2.971e-4 C 4.648414,3.121e-4 4,0.676788 4,1.3940313 L 4,30.606268 C 4,31.282757 4.687474,32 5.335888,32 l 21.327332,0 c 0.648414,0 1.335888,-0.717243 1.335888,-1.393732 L 28,8.9999998 l -9,-9 z"
     id="path4-1"
     inkscape:connector-curvature="0"
     sodipodi:nodetypes="ssssssccs" />
  <path
     style="fill:#000000;fill-opacity:0.19599998"
     d="M 21,8.9999998 28,16 28,8.9999998 z"
     id="path6-4"
     inkscape:connector-curvature="0"
     sodipodi:nodetypes="cccc" />
  <path
     style="fill:#ffffff;fill-opacity:0.39200003"
     d="m 19.000306,2.971e-4 8.991594,8.9997027 -7.613262,0 c -0.672951,0 -1.378332,-0.7134896 -1.378332,-1.3864402 z"
     id="path8-6"
     inkscape:connector-curvature="0"
     sodipodi:nodetypes="ccssc" />
  <g
     style="fill:#ffffff"
     id="g10"
     transform="matrix(1.1463933,0,0,1.1463933,-2.244741,-1.4403975)">
    <path
       style="fill-rule:evenodd"
       d="m 15.683594,10.667969 c -0.21875,0 -0.445313,0.08203 -0.628906,0.222656 -0.1875,0.144531 -0.308594,0.332031 -0.324219,0.558594 -0.01563,0.222656 0.07031,0.449219 0.242187,0.605469 l 0,0.01562 c 0.402344,0.347657 0.820313,0.707032 1.226563,1.0625 l -4.546875,0 c -0.324219,0 -0.597656,0.07422 -0.808594,0.242188 -0.207031,0.164062 -0.34375,0.410156 -0.386719,0.683594 -0.08594,0.535156 0.296875,1.144531 0.917969,1.144531 l 1.984375,0 -4.144531,3.375 c 0,0 -0.00391,-0.0078 -0.015625,0 -0.253907,0.214844 -0.433594,0.507813 -0.5,0.8125 -0.066407,0.300781 -0.035157,0.621094 0.144531,0.875 0.367188,0.515625 1.101562,0.5 1.613281,0.04687 l 2.175781,-1.957031 c 0.0039,0.226562 0.05859,0.585937 0.148438,0.890625 0.175781,0.625 0.480469,1.210937 0.902344,1.71875 0.429687,0.523437 0.953125,0.945312 1.5625,1.242187 0.640625,0.3125 1.332031,0.460938 2.050781,0.460938 0.71875,0 1.40625,-0.164063 2.046875,-0.476563 0.609375,-0.300781 1.152344,-0.71875 1.582031,-1.242187 0.417969,-0.511719 0.707031,-1.09375 0.886719,-1.71875 0.08984,-0.316407 0.152344,-0.648438 0.175781,-0.972657 C 22.011719,17.941406 22,17.621094 21.957031,17.304688 21.878906,16.683594 21.691406,16.097656 21.390625,15.570312 21.15625,15.15625 20.847656,14.792969 20.503906,14.472656 l 0.01563,-0.01563 L 20.34375,14.3125 16.3125,10.90625 c 0,0 -0.01563,-0.01172 -0.01563,-0.01563 -0.0039,0 -0.01563,0 -0.01563,0 -0.175781,-0.144531 -0.382812,-0.222656 -0.597656,-0.222656 z m 1.5625,3.582031 c 2.085937,0 3.773437,1.667969 3.773437,3.722656 0,2.058594 -1.6875,3.726563 -3.773437,3.726563 -2.082032,0 -3.773438,-1.667969 -3.773438,-3.726563 0,-2.054687 1.691406,-3.722656 3.773438,-3.722656 z"
       id="path12"
       inkscape:connector-curvature="0" />
    <path
       d="m 18.332031,18.003906 c 0,0.617188 -0.503906,1.117188 -1.128906,1.117188 -0.621094,0 -1.128906,-0.5 -1.128906,-1.117188 0,-0.613281 0.507812,-1.113281 1.128906,-1.113281 0.625,0 1.128906,0.5 1.128906,1.113281 z"
       id="path14"
       inkscape:connector-curvature="0" />
  </g>
</svg>

<svg width="32" xmlns="http://www.w3.org/2000/svg" height="32" viewBox="0 0 32 32" xmlns:xlink="http://www.w3.org/1999/xlink">
<path style="fill:#ce5b00" d="M 5.332031 0.667969 C 4.648438 0.667969 4 1.3125 4 2 L 4 30 C 4 30.648438 4.6875 31.332031 5.332031 31.332031 L 26.667969 31.332031 C 27.3125 31.332031 28 30.648438 28 30 L 28 9.332031 L 19.332031 0.667969 Z "/>
<path style="fill:#000;fill-opacity:.196" d="M 19.332031 8 L 19.375 8.042969 L 19.480469 8 Z M 20.667969 9.332031 L 28 16.667969 L 28 9.332031 Z "/>
<path style="fill:#fff;fill-opacity:.392" d="M 19.332031 0.667969 L 28 9.332031 L 20.667969 9.332031 C 20.019531 9.332031 19.332031 8.648438 19.332031 8 Z "/>
<g style="fill:#fff">
<path style="fill-rule:evenodd" d="M 15.683594 10.667969 C 15.464844 10.667969 15.238281 10.75 15.054688 10.890625 C 14.867188 11.035156 14.746094 11.222656 14.730469 11.449219 C 14.714844 11.671875 14.800781 11.898438 14.972656 12.054688 L 14.972656 12.070312 C 15.375 12.417969 15.792969 12.777344 16.199219 13.132812 L 11.652344 13.132812 C 11.328125 13.132812 11.054688 13.207031 10.84375 13.375 C 10.636719 13.539062 10.5 13.785156 10.457031 14.058594 C 10.371094 14.59375 10.753906 15.203125 11.375 15.203125 L 13.359375 15.203125 L 9.214844 18.578125 C 9.214844 18.578125 9.210938 18.570312 9.199219 18.578125 C 8.945312 18.792969 8.765625 19.085938 8.699219 19.390625 C 8.632812 19.691406 8.664062 20.011719 8.84375 20.265625 C 9.210938 20.78125 9.945312 20.765625 10.457031 20.3125 L 12.632812 18.355469 C 12.636719 18.582031 12.691406 18.941406 12.78125 19.246094 C 12.957031 19.871094 13.261719 20.457031 13.683594 20.964844 C 14.113281 21.488281 14.636719 21.910156 15.246094 22.207031 C 15.886719 22.519531 16.578125 22.667969 17.296875 22.667969 C 18.015625 22.667969 18.703125 22.503906 19.34375 22.191406 C 19.953125 21.890625 20.496094 21.472656 20.925781 20.949219 C 21.34375 20.4375 21.632812 19.855469 21.8125 19.230469 C 21.902344 18.914062 21.964844 18.582031 21.988281 18.257812 C 22.011719 17.941406 22 17.621094 21.957031 17.304688 C 21.878906 16.683594 21.691406 16.097656 21.390625 15.570312 C 21.15625 15.15625 20.847656 14.792969 20.503906 14.472656 L 20.519531 14.457031 L 20.34375 14.3125 L 16.3125 10.90625 C 16.3125 10.90625 16.296875 10.894531 16.296875 10.890625 C 16.292969 10.890625 16.28125 10.890625 16.28125 10.890625 C 16.105469 10.746094 15.898438 10.667969 15.683594 10.667969 Z M 17.246094 14.25 C 19.332031 14.25 21.019531 15.917969 21.019531 17.972656 C 21.019531 20.03125 19.332031 21.699219 17.246094 21.699219 C 15.164062 21.699219 13.472656 20.03125 13.472656 17.972656 C 13.472656 15.917969 15.164062 14.25 17.246094 14.25 Z "/>
<path d="M 18.332031 18.003906 C 18.332031 18.621094 17.828125 19.121094 17.203125 19.121094 C 16.582031 19.121094 16.074219 18.621094 16.074219 18.003906 C 16.074219 17.390625 16.582031 16.890625 17.203125 16.890625 C 17.828125 16.890625 18.332031 17.390625 18.332031 18.003906 Z "/>
</g>
</svg>
